X:5719
T:Gan Ainm
R:Reel
S:Unknown Accordion
H:
N:
D:Clare FM
Z:Adrian Scahill
M:4/4
L:1/8
K:F
F2FA cFAc|fefg afdf|cA (3AAA fcc2|dcAF GFDG|\
F2FA cFAc|fefg afdf|cAA2 fdcA|(3BAG EG F4:||\
f3g afga|bagb agfd|cAA2 fcc2|dcAF GA (3BAG|\
fefg afga|bagb agfd|cAA2 fdcA|(3BAG EG F4:||
